X:1
T:Under the Greenwood Tree
T:Carl Henze (1872 - 1946)
%%score ( 1 2 )
L:1/8
Q:1/4=92
M:4/4
K:G
V:1 treble-8 nm="Guitare classique"
V:2 treble-8 
V:1
"_""^Andante espressivo" !4!g2 !2!fe g2 fe | !4!g4 !3!f4 | !3!f2 e!4!^d f2 ed | f4 e4 | %4
 !2!g2 !1!f!2!g"^₵4" !2!a2 !4!b>!4!c' | !3!b4 !3!g4 | !3!gfe!4!^d !3!g"^rit."!2!fe!4!d | %7
 [GBe-]4 e4 ||[K:E]"^a tempo" e3 !3!f !3!g!1!f!3!g!4!a | !4!b4 !3!g3 !4!a | %10
 !4!f3 e !2![Bd]!4!a!2!g!1!^^f | !2!g4 e3 !3!f | !3!gggg !3!g!1!f!3!g!4!a | !4!b4 !3!g3 !4!a | %14
 !4!f3 e !2![Bd]!4!a!3!g!1!f | !1![GBe-]4 e4 ||[K:G] g2 fe g2 fe | g4 f4 | f2 e^d f2 ed | f4 e4 | %20
 g2 fg"^₵4" a2 b>c' | b4 g4 | gfe^d g"^poco rit."fed | [GBe]4 e'4 |] %24
V:2
 E,[GB] z2 E,[GB] z2 | A,!2!!1![Ac] z [Ac] A,[Ac] z [Ac] | !1!B,!2![AB] z2 B,[AB] z2 | %3
 E,[GB] z [GB] E,[GB] z [GB] | E,[GB] z2 [FB^d][FBd] z2 | E,[GB] z [GB] E,[GB] z [GB] | %6
 A,4 !1!B,4 | E,[GB] z [GB] E,4 ||[K:E] E,B!1!G z E,4 | E,BE,B E,BE, z | !2!B,B!1!!3![DA] z F2 z2 | %11
 E,BE,B E,B!1!G z | E,4 E,4 | E,BE,B E,BE, z | !2!B,B!1!!3![DA] z F2 z2 | %15
 !arpeggio!E,A"_"GF !arpeggio!!2!!3!!1![E,B,EG]4 ||[K:G] E,[GB] z2 E,[GB] z2 | %17
 A,[Ac] z [Ac] A,[Ac] z [Ac] | B,[AB] z2 B,[AB] z2 | E,[GB] z [GB] E,[GB] z [GB] | %20
 E,[GB] z2 [FB^d][FBd] z2 | E,[GB] z [GB] E,[GB] z [GB] | A,4 B,4 | E,[GB] z"_" [GB] E,4 |] %24

